assets/logos/bot-analytics.svg

<svg width="80" height="80" viewBox="0 0 80 80" fill="none" xmlns="http://www.w3.org/2000/svg">
<path d="M30.8379 55.8544C31.5515 55.8544 32.1357 56.4332 32.1357 57.1486L32.1321 64.4934C32.1321 65.207 32.5833 65.4227 33.137 64.9698L43.2715 56.6741C43.8252 56.2211 44.8606 55.8526 45.5742 55.8526L62.34 55.8634C64.3316 55.7465 66.0249 53.3989 66.1454 51.5187L66.1238 28.093C66.1238 27.3794 66.708 26.948 67.4234 26.948H70.6698C71.3834 26.948 71.9676 27.3776 71.9676 28.093L72 52.1101C72 57.3032 68.0724 62.899 62.2303 62.899H47.663C46.9493 62.899 45.9121 62.6671 45.3603 63.1183L27.2877 77.6083C26.7341 78.0613 26.2829 77.6964 26.2829 76.9828L26.2901 63.0662C26.2901 62.3543 25.7059 61.7306 24.9922 61.7306L18.4797 61.7216C13.4034 61.7216 8.27682 56.7603 8 51.6805V41.5692C8 40.8538 8.93113 41.3266 9.64656 41.3266H12.8929C13.6066 41.3266 14.1908 41.3823 14.1908 42.0959L14.2249 51.5708C14.2249 53.4007 16.5114 55.689 18.4006 55.9802L30.8379 55.8544ZM22.4361 35.8746C22.1036 36.5073 21.2479 37.0232 20.5325 37.0232H9.64656C8.93293 37.0232 8.34872 36.439 8.34872 35.7254V32.479C8.34872 31.7654 8.93293 31.1812 9.64656 31.1812H17.0021C17.7158 31.1812 18.5732 30.6635 18.9057 30.0326L28.7545 11.3254C29.0871 10.6945 29.6695 10.6711 30.0488 11.2751L38.3624 24.5015C38.7435 25.1073 39.3367 25.0893 39.6818 24.4637L51.2778 3.48092C51.623 2.85717 52.2215 2.8374 52.608 3.43778L60.5586 15.8049C60.9451 16.4053 61.8438 16.896 62.5593 16.896H70.668C71.3816 16.896 71.9658 17.4803 71.9658 18.1957V21.4403C71.9658 22.1539 71.3816 22.7399 70.668 22.7399H59.365C58.6514 22.7399 57.7508 22.2492 57.3643 21.6488L52.9783 14.845C52.5918 14.2447 51.9915 14.2644 51.6463 14.89L40.0054 35.9447C39.6603 36.5685 39.0671 36.5846 38.686 35.9824L30.5035 22.9556C30.1243 22.3516 29.5401 22.3732 29.2075 23.0041L22.4361 35.8746Z" fill="#0385CD"/>
</svg>

<svg xmlns="http://www.w3.org/2000/svg" width="80" height="80" fill="none" viewBox="0 0 80 80"><path fill="#0385cd" d="M30.838 55.854a1.3 1.3 0 0 1 1.298 1.295l-.004 7.344c0 .714.451.93 1.005.477l10.135-8.296c.553-.453 1.589-.821 2.302-.821l16.766.01c1.992-.117 3.685-2.464 3.805-4.344l-.021-23.426c0-.714.584-1.145 1.3-1.145h3.246c.713 0 1.298.43 1.298 1.145L72 52.11c0 5.193-3.928 10.789-9.77 10.789H47.663c-.714 0-1.75-.232-2.303.22l-18.072 14.49c-.554.452-1.005.087-1.005-.626l.007-13.917c0-.712-.584-1.335-1.298-1.335l-6.512-.01c-5.077 0-10.203-4.96-10.48-10.04V41.569c0-.715.931-.242 1.647-.242h3.246c.714 0 1.298.055 1.298.769l.034 9.475c0 1.83 2.286 4.118 4.176 4.41zm-8.402-19.98c-.332.633-1.188 1.15-1.904 1.15H9.647a1.3 1.3 0 0 1-1.298-1.299V32.48c0-.714.584-1.298 1.298-1.298h7.355c.714 0 1.571-.518 1.904-1.148l9.849-18.708c.332-.63.915-.654 1.294-.05l8.313 13.227c.381.605.975.587 1.32-.038L51.278 3.48c.345-.624.944-.644 1.33-.043l7.95 12.367c.387.6 1.286 1.091 2.001 1.091h8.109c.714 0 1.298.584 1.298 1.3v3.244c0 .714-.584 1.3-1.298 1.3H59.365c-.714 0-1.614-.49-2-1.091l-4.387-6.804c-.386-.6-.986-.58-1.332.045l-11.64 21.055c-.346.624-.939.64-1.32.037l-8.183-13.026c-.379-.604-.963-.583-1.296.048z"/></svg>
